src/lib/packages/icons/src/assets/line/store.svg

<svg width="24" height="24" viewBox="0 0 24 24" fill="none" xmlns="http://www.w3.org/2000/svg">
<path d="M21.545 7.871L20.506 4.799C20.017 3.355 19.412 2.25101 16.5 2.25101H7.50001C4.58801 2.25101 3.983 3.355 3.495 4.799L2.45398 7.87199C1.99298 9.23599 2.33601 10.688 3.25001 11.644V18C3.25001 20.418 4.58201 21.75 7.00001 21.75H17C19.418 21.75 20.75 20.418 20.75 18V11.643C21.664 10.687 22.0061 9.235 21.545 7.871ZM3.87501 8.35201L4.91602 5.27901C5.26002 4.26101 5.43301 3.75 7.50001 3.75H16.5C18.567 3.75 18.74 4.26101 19.085 5.27901L20.124 8.351C20.468 9.365 20.104 10.455 19.261 10.942C18.034 11.65 16.177 10.944 15.752 9.74899C15.646 9.44999 15.362 9.25 15.045 9.25C15.044 9.25 15.043 9.25 15.042 9.25C14.724 9.251 14.4401 9.453 14.3361 9.754C14.0401 10.607 13.036 11.25 12 11.25C10.964 11.25 9.95995 10.607 9.66395 9.754C9.55995 9.453 9.27601 9.251 8.95801 9.25C8.67301 9.284 8.35405 9.44899 8.24805 9.74899C7.94405 10.604 6.93505 11.25 5.89905 11.25C5.48805 11.25 5.08702 11.144 4.73902 10.942C3.89602 10.456 3.53201 9.366 3.87501 8.35201ZM13.28 20.25H10.78V17.5C10.78 16.811 11.341 16.25 12.03 16.25C12.719 16.25 13.28 16.811 13.28 17.5V20.25ZM17 20.25H14.78V17.5C14.78 15.983 13.547 14.75 12.03 14.75C10.513 14.75 9.28003 15.983 9.28003 17.5V20.25H7.00001C5.42301 20.25 4.75001 19.577 4.75001 18V12.554C6.22001 12.986 7.95606 12.501 8.95106 11.413C9.69306 12.228 10.824 12.749 12 12.749C13.176 12.749 14.307 12.228 15.049 11.413C15.795 12.228 16.927 12.749 18.101 12.749C18.494 12.749 18.88 12.682 19.25 12.566V18C19.25 19.577 18.577 20.25 17 20.25Z" fill="currentColor"/>
</svg>

<svg xmlns="http://www.w3.org/2000/svg" width="24" height="24" fill="none"><path fill="currentColor" d="m21.545 7.871-1.039-3.072c-.489-1.444-1.094-2.548-4.006-2.548h-9c-2.912 0-3.517 1.104-4.005 2.548L2.454 7.872c-.461 1.364-.118 2.816.796 3.772V18c0 2.418 1.332 3.75 3.75 3.75h10c2.418 0 3.75-1.332 3.75-3.75v-6.357c.914-.956 1.256-2.408.795-3.772Zm-17.67.481 1.041-3.073C5.26 4.261 5.433 3.75 7.5 3.75h9c2.067 0 2.24.511 2.585 1.529l1.039 3.072c.344 1.014-.02 2.104-.863 2.591-1.227.708-3.084.002-3.509-1.193a.75.75 0 0 0-.707-.499h-.003a.75.75 0 0 0-.706.504c-.296.853-1.3 1.496-2.336 1.496-1.036 0-2.04-.643-2.336-1.496a.75.75 0 0 0-.706-.504c-.285.034-.604.199-.71.499-.304.855-1.313 1.501-2.349 1.501-.41 0-.812-.106-1.16-.308-.843-.486-1.207-1.576-.864-2.59ZM13.28 20.25h-2.5V17.5c0-.689.561-1.25 1.25-1.25s1.25.561 1.25 1.25v2.75Zm3.72 0h-2.22V17.5a2.752 2.752 0 0 0-2.75-2.75 2.752 2.752 0 0 0-2.75 2.75v2.75H7c-1.577 0-2.25-.673-2.25-2.25v-5.446c1.47.432 3.206-.053 4.201-1.141A4.184 4.184 0 0 0 12 12.749a4.184 4.184 0 0 0 3.049-1.336 4.2 4.2 0 0 0 3.052 1.336 3.84 3.84 0 0 0 1.149-.183V18c0 1.577-.673 2.25-2.25 2.25Z"/></svg>
